src/next/cmd/lc_diagramaxis.svg

<svg height="24" width="24" xmlns="http://www.w3.org/2000/svg" xmlns:xlink="http://www.w3.org/1999/xlink"><linearGradient id="a"><stop offset="0" stop-color="#fbaeff"/><stop offset="1" stop-color="#ffd7d7"/></linearGradient><linearGradient id="b"><stop offset="0" stop-color="#fff"/><stop offset="1" stop-color="#fff" stop-opacity="0"/></linearGradient><linearGradient id="c"><stop offset="0" stop-color="#b900c4"/><stop offset="1" stop-color="#ae4300"/></linearGradient><linearGradient id="d" gradientTransform="matrix(1.136603 0 0 .99691887 30.893314 -15.610238)" gradientUnits="userSpaceOnUse" x1="35.803963" x2="35.803963" xlink:href="#c" y1="116.09032" y2="27.999783"/><linearGradient id="e" gradientTransform="matrix(.86538572 0 0 .91667 40.904188 -9.511252)" gradientUnits="userSpaceOnUse" x1="48" x2="47.9986" xlink:href="#a" y1="88" y2="21.335606"/><linearGradient id="f" gradientTransform="matrix(.86538572 0 0 .93713356 44.365731 -17.258977)" gradientUnits="userSpaceOnUse" x1="9.269054" x2="40" xlink:href="#b" y1="30.772436" y2="84"/><linearGradient id="g" gradientTransform="matrix(1.136603 0 0 .99691887 4.226926 -15.610238)" gradientUnits="userSpaceOnUse" x1="35.803963" x2="35.803963" xlink:href="#c" y1="116.09032" y2="27.999783"/><linearGradient id="h" gradientTransform="matrix(.86538572 0 0 .91667 14.237799 -9.511252)" gradientUnits="userSpaceOnUse" x1="48" x2="47.9986" xlink:href="#a" y1="88" y2="21.335606"/><linearGradient id="i" gradientTransform="matrix(.86538572 0 0 .91667 17.756634 10.524313)" gradientUnits="userSpaceOnUse" x1="9.269054" x2="40" xlink:href="#b" y1="30.772436" y2="84"/><linearGradient id="j" gradientTransform="matrix(1.136603 0 0 .99691887 57.384436 -15.062619)" gradientUnits="userSpaceOnUse" x1="35.803963" x2="35.803963" xlink:href="#c" y1="116.09032" y2="27.999783"/><linearGradient id="k" gradientTransform="matrix(.86538572 0 0 .91667 67.395309 -8.963634)" gradientUnits="userSpaceOnUse" x1="48" x2="47.9986" xlink:href="#a" y1="88" y2="21.335606"/><linearGradient id="l" gradientTransform="matrix(.86538572 0 0 .91667 70.914144 4.199217)" gradientUnits="userSpaceOnUse" x1="9.269054" x2="40" xlink:href="#b" y1="30.772436" y2="84"/><g transform="scale(.1875)"><path d="m31.999507 5.3347735v10.6665555 85.332441h-5.333278v-85.332441-10.6665555z" fill="#797979" stroke-width=".91667"/><path d="m122.66684 101.33377h-10.66674-80.000593v-5.333275h80.000593 10.66674z" fill="#797979" stroke-width=".890851"/><g stroke-width=".91667"><rect fill="url(#d)" height="74.711449" rx="4.288369" ry="3.761345" width="21.450272" x="63.999981" y="21.333214"/><rect fill="url(#e)" height="64.044838" rx="1.5298" ry="1.620459" width="10.800512" x="69.333328" y="26.666565"/><path d="m70.862491 26.666564c-.847509 0-1.530768.722552-1.530768 1.620286v26.279067c4.120153-1.562607 8.282209-3.888419 10.785196-6.810571v-19.579499c0-.08587-.01157-.168182-.02327-.250652-.154603-.722104-.759779-1.258631-1.489588-1.258631z" fill="url(#f)"/><rect fill="url(#g)" height="48.043671" rx="4.288369" ry="3.761345" width="21.45108" x="37.332783" y="48.000996"/><rect fill="url(#h)" height="37.377129" rx="1.5298" ry="1.620459" width="10.801393" x="42.666061" y="53.334274"/><path d="m44.196703 53.333448c-.847509 0-1.530767.724342-1.530767 1.622076v25.845798c4.117412-1.520629 8.282717-3.787774 10.801309-6.638697v-19.207101c0-.897734-.681468-1.622076-1.528977-1.622076z" fill="url(#i)"/><rect fill="url(#j)" height="53.924564" rx="4.288369" ry="3.761345" width="21.275812" x="90.665558" y="42.667717"/><rect fill="url(#k)" height="43.258022" rx="1.5298" ry="1.620459" width="10.626125" x="95.99884" y="48.000996"/><path d="m97.528276 48.001723c-.847507 0-1.528975.722552-1.528975 1.620286v24.789478c4.060839-1.520722 8.143229-3.764795 10.625849-6.576034v-18.213444c0-.897734-.68326-1.620286-1.53076-1.620286z" fill="url(#l)"/></g></g></svg>

<?xml version="1.0" encoding="UTF-8" standalone="no"?>
<svg
   xmlns:dc="http://purl.org/dc/elements/1.1/"
   xmlns:cc="http://creativecommons.org/ns#"
   xmlns:rdf="http://www.w3.org/1999/02/22-rdf-syntax-ns#"
   xmlns:svg="http://www.w3.org/2000/svg"
   xmlns="http://www.w3.org/2000/svg"
   xmlns:xlink="http://www.w3.org/1999/xlink"
   xmlns:sodipodi="http://sodipodi.sourceforge.net/DTD/sodipodi-0.dtd"
   xmlns:inkscape="http://www.inkscape.org/namespaces/inkscape"
   height="24"
   width="24"
   version="1.1"
   id="svg50"
   sodipodi:docname="lc_diagramaxis.svg"
   inkscape:version="0.92.4 (unknown)"
   inkscape:export-filename="/home/rizmut/Dokumen/Rizmut/Github/libreoffice-style-karasa-jaga/build/next/cmd/lc_diagramaxis.png"
   inkscape:export-xdpi="18"
   inkscape:export-ydpi="18">
  <metadata
     id="metadata56">
    <rdf:RDF>
      <cc:Work
         rdf:about="">
        <dc:format>image/svg+xml</dc:format>
        <dc:type
           rdf:resource="http://purl.org/dc/dcmitype/StillImage" />
        <dc:title></dc:title>
      </cc:Work>
    </rdf:RDF>
  </metadata>
  <defs
     id="defs54" />
  <sodipodi:namedview
     pagecolor="#ffffff"
     bordercolor="#666666"
     borderopacity="1"
     objecttolerance="10"
     gridtolerance="10"
     guidetolerance="10"
     inkscape:pageopacity="0"
     inkscape:pageshadow="2"
     inkscape:window-width="1366"
     inkscape:window-height="706"
     id="namedview52"
     showgrid="true"
     inkscape:zoom="5.2149126"
     inkscape:cx="4.2155426"
     inkscape:cy="37.087085"
     inkscape:window-x="0"
     inkscape:window-y="0"
     inkscape:window-maximized="1"
     inkscape:current-layer="g4787">
    <inkscape:grid
       type="xygrid"
       id="grid866"
       spacingx="0.5"
       spacingy="0.5" />
  </sodipodi:namedview>
  <linearGradient
     id="a">
    <stop
       offset="0"
       stop-color="#fbaeff"
       id="stop2" />
    <stop
       offset="1"
       stop-color="#ffd7d7"
       id="stop4" />
  </linearGradient>
  <linearGradient
     id="b">
    <stop
       offset="0"
       stop-color="#fff"
       id="stop7" />
    <stop
       offset="1"
       stop-color="#fff"
       stop-opacity="0"
       id="stop9" />
  </linearGradient>
  <linearGradient
     id="c">
    <stop
       offset="0"
       stop-color="#b900c4"
       id="stop12" />
    <stop
       offset="1"
       stop-color="#ae4300"
       id="stop14" />
  </linearGradient>
  <linearGradient
     id="d"
     gradientTransform="matrix(1.136603,0,0,0.99691887,30.893314,-15.610238)"
     gradientUnits="userSpaceOnUse"
     x1="35.803963"
     x2="35.803963"
     xlink:href="#c"
     y1="116.09032"
     y2="27.999783" />
  <linearGradient
     id="e"
     gradientTransform="matrix(0.86538572,0,0,0.91667,40.904188,-9.5112517)"
     gradientUnits="userSpaceOnUse"
     x1="48"
     x2="47.9986"
     xlink:href="#a"
     y1="88"
     y2="21.335606" />
  <linearGradient
     id="f"
     gradientTransform="matrix(0.86538572,0,0,0.93713356,44.365731,-17.258977)"
     gradientUnits="userSpaceOnUse"
     x1="9.2690535"
     x2="40"
     xlink:href="#b"
     y1="30.772436"
     y2="84" />
  <linearGradient
     id="g"
     gradientTransform="matrix(1.136603,0,0,0.99691887,4.2269259,-15.610238)"
     gradientUnits="userSpaceOnUse"
     x1="35.803963"
     x2="35.803963"
     xlink:href="#c"
     y1="116.09032"
     y2="27.999783" />
  <linearGradient
     id="h"
     gradientTransform="matrix(0.86538572,0,0,0.91667,14.237799,-9.5112517)"
     gradientUnits="userSpaceOnUse"
     x1="48"
     x2="47.9986"
     xlink:href="#a"
     y1="88"
     y2="21.335606" />
  <linearGradient
     id="i"
     gradientTransform="matrix(0.86538572,0,0,0.91667,17.756634,10.524313)"
     gradientUnits="userSpaceOnUse"
     x1="9.2690535"
     x2="40"
     xlink:href="#b"
     y1="30.772436"
     y2="84" />
  <linearGradient
     id="j"
     gradientTransform="matrix(1.136603,0,0,0.99691887,57.384436,-15.062619)"
     gradientUnits="userSpaceOnUse"
     x1="35.803963"
     x2="35.803963"
     xlink:href="#c"
     y1="116.09032"
     y2="27.999783" />
  <linearGradient
     id="k"
     gradientTransform="matrix(0.86538572,0,0,0.91667,67.395309,-8.963634)"
     gradientUnits="userSpaceOnUse"
     x1="48"
     x2="47.9986"
     xlink:href="#a"
     y1="88"
     y2="21.335606" />
  <linearGradient
     id="l"
     gradientTransform="matrix(0.86538572,0,0,0.91667,70.914144,4.1992174)"
     gradientUnits="userSpaceOnUse"
     x1="9.2690535"
     x2="40"
     xlink:href="#b"
     y1="30.772436"
     y2="84" />
  <g
     id="g4787"
     transform="scale(0.1875)">
    <path
       id="path26"
       d="M 31.999507,5.3347735 V 16.001329 101.33377 H 26.666229 V 16.001329 5.3347735 Z"
       inkscape:connector-curvature="0"
       style="fill:#797979;stroke-width:0.91667002" />
    <path
       style="fill:#797979;stroke-width:0.89085102"
       inkscape:connector-curvature="0"
       id="path28"
       d="M 122.66684,101.33377 H 112.0001 31.999507 v -5.333275 h 80.000593 10.66674 z" />
    <rect
       style="fill:url(#d);stroke-width:0.91667002"
       id="rect30"
       y="21.333214"
       x="63.999981"
       width="21.450272"
       ry="3.7613454"
       rx="4.2883692"
       height="74.711449" />
    <rect
       style="fill:url(#e);stroke-width:0.91667002"
       id="rect32"
       y="26.666565"
       x="69.333328"
       width="10.800512"
       ry="1.620459"
       rx="1.5298003"
       height="64.044838" />
    <path
       inkscape:connector-curvature="0"
       style="fill:url(#f);stroke-width:0.91667002"
       id="path34"
       d="m 70.862491,26.666564 c -0.847509,0 -1.530768,0.722552 -1.530768,1.620286 v 26.279067 c 4.120153,-1.562607 8.282209,-3.888419 10.785196,-6.810571 V 28.175847 c 0,-0.08587 -0.01157,-0.168182 -0.02327,-0.250652 -0.154603,-0.722104 -0.759779,-1.258631 -1.489588,-1.258631 z" />
    <rect
       id="rect36"
       y="48.000996"
       x="37.332783"
       width="21.45108"
       ry="3.7613454"
       rx="4.2883692"
       height="48.043671"
       style="fill:url(#g);stroke-width:0.91667002" />
    <rect
       id="rect38"
       y="53.334274"
       x="42.666061"
       width="10.801393"
       ry="1.620459"
       rx="1.5298003"
       height="37.377129"
       style="fill:url(#h);stroke-width:0.91667002" />
    <path
       id="path40"
       d="m 44.196703,53.333448 c -0.847509,0 -1.530767,0.724342 -1.530767,1.622076 v 25.845798 c 4.117412,-1.520629 8.282717,-3.787774 10.801309,-6.638697 V 54.955524 c 0,-0.897734 -0.681468,-1.622076 -1.528977,-1.622076 z"
       style="fill:url(#i);stroke-width:0.91667002"
       inkscape:connector-curvature="0" />
    <rect
       id="rect42"
       y="42.667717"
       x="90.665558"
       width="21.275812"
       ry="3.7613454"
       rx="4.2883692"
       height="53.924564"
       style="fill:url(#j);stroke-width:0.91667002" />
    <rect
       id="rect44"
       y="48.000996"
       x="95.99884"
       width="10.626125"
       ry="1.620459"
       rx="1.5298003"
       height="43.258022"
       style="fill:url(#k);stroke-width:0.91667002" />
    <path
       id="path46"
       d="m 97.528276,48.001723 c -0.847507,0 -1.528975,0.722552 -1.528975,1.620286 v 24.789478 c 4.060839,-1.520722 8.143229,-3.764795 10.625849,-6.576034 V 49.622009 c 0,-0.897734 -0.68326,-1.620286 -1.53076,-1.620286 z"
       style="fill:url(#l);stroke-width:0.91667002"
       inkscape:connector-curvature="0" />
  </g>
</svg>
